X:123
T:Minestrone Jig*
B:NFID.101  ("unidentified jig")
123mine
S:SD
N:1:As far as I can tell, this tune is a combination of three
other jigs:
Part A & B = "Shandon Bells"
Part C = not sure
Part D = 2nd part of "Kitty Lie Over"
Part E = 1st part of "Kitty Lie Over"
N:It looks like this tune is played A-B-C-D-E-D-E!
L:1/8
M:6/8
R:jig
Q:320
K:D
P:part A
B|AFD DFA|dfd cBA|BEE EDE|B2A Bcd|
"5"AFD DFA|dfd cBA|Bcd ecA|d3 d2:|
P:part B
g|"9"fdd dcd|faa afd|cAA eAA|cAc efg|
"13"fdd dcd|faa afd|cAA ABc|d3d2:|
P:part C
D|"17"DFA BAF|ABd edB|B2B AFD|F<EE-E2E|
"21"DFA BAF|ABd edB|B2B AFD|ADD D2:|
P:part D
g|"25"fdd dcd|fdd d2g|fdd def|gfg e2g|
"29"f2a e2g|B2A A2F|ABA GFE|FDD D2:|
P:part E
B|"33"AFD DFA|BcB BAF|ABA AFD|FEE E2B|
"37"AFD DFA|BcB BAF|ABA AFE|FDD D2:|


%%%

